X: 1
T: Rudolf er r\od p\aa nesen
C: Tune: Johnny Marks
C: Words: Egil Hagen
M: C
L: 1/8
K: Bb
[| "Bb"F G2 F D2 B2 | G2 F4 z2 \
 |  FG FG F2 "Edim"[B2=E2] | "F7"[A6_E6] z2 |
w: Ru-dolf er r\od p\aa ne-sen, og n\aar det er vind og sno
 | "F7"E F2 E C2 [A2E2] | [G2E2] [F4E4] z2 \
 | FG FG F2 "F7+5"[G2^C2] | "Bb"[D6B,6] z2 ||
w: blir han s\aa kald p\aa ne-sen s\aa den ly-ser som en glo.
|| "Bb"F G2 F D2 B2 | G2 F4 z2 \
 |  FG FG F2 "Edim"[B2=E2] | "F7"[A6_E6] z2 |
w: Rein-flok-ken er-tet Ru-dolf, sa han var et sno-dig-dyr:
 | "F7"E F2 E C2 [A2E2] | [G2E2] [F4E4] z2 \
 | FG FG F2 [c2E2] | "Bb"[B6D6] "Bb7"z2 |]
w: "Hold deg p\aa av-stand, Ru-dolf! Husk hvor lett det kan ta fyr!"
[| "Eb"G2 G2 B2 G2 | "Bb"F2 D2 F3 F \
 | "Cm"E2 G2 "F7"F2 E2 | "Bb"D6 "Edim"z2 |
w: Men en vak-ker ju-le kveld kom nis-se-far og sa:
 |"F"C2 D2 F2 G2 | A2 A2 "Dm"A2 z2 \
 | "Gm"B2 B2 "C7"A2 G2 | "F7"F2 E2 C2 z2 ||
w: Ru-dolf, du er rein for to, for din ne-se ly-ser god!"
|| "Bb"F G2 F D2 B2 | G2 F4 z2 \
 | FG FG F2 "Edim"[B2=E2] | "F7"[A6_E6] z2 |
w: Og fra den da-gen Ru-dolf ju-le-nis-se-sle-den drar.
 | E F2 E C2 [A2E2] | [G2E2] [F4E4] z2 \
 | FG FG F2 [c2E2] | "Bb"[B6D6] z2 |]
w: Ru-dolf er r\od p\aa ne-sen, vi-ser vei til nis-se-far.
